icons/number-24.svg

<svg width="24" height="24" viewBox="0 0 24 24" fill="none" xmlns="http://www.w3.org/2000/svg">
<path fill-rule="evenodd" clip-rule="evenodd" d="M2 8.25011C2 7.8359 2.33579 7.50011 2.75 7.50011H21.25C21.6642 7.50011 22 7.8359 22 8.25011C22 8.66433 21.6642 9.00011 21.25 9.00011H2.75C2.33579 9.00011 2 8.66433 2 8.25011Z" fill="black"/>
<path fill-rule="evenodd" clip-rule="evenodd" d="M1.99512 15.7501C1.99512 15.3359 2.3309 15.0001 2.74512 15.0001V15.7501V16.5001C2.3309 16.5001 1.99512 16.1643 1.99512 15.7501ZM2.74512 15.7501C2.74512 16.5001 2.74512 16.5001 2.74512 16.5001H21.2499C21.6641 16.5001 21.9999 16.1643 21.9999 15.7501C21.9999 15.3359 21.6641 15.0001 21.2499 15.0001H2.74512C2.74512 15.0001 2.74512 15.0001 2.74512 15.7501Z" fill="black"/>
<path fill-rule="evenodd" clip-rule="evenodd" d="M9.62005 2.00978C10.0289 2.07609 10.3066 2.46129 10.2403 2.87017L7.24033 21.3702C7.17403 21.779 6.78882 22.0567 6.37995 21.9904C5.97107 21.9241 5.69337 21.5389 5.75967 21.1301L8.75967 2.63006C8.82597 2.22119 9.21118 1.94348 9.62005 2.00978Z" fill="black"/>
<path fill-rule="evenodd" clip-rule="evenodd" d="M17.6201 2.00978C18.0289 2.07609 18.3066 2.46129 18.2403 2.87017L15.2403 21.3702C15.174 21.779 14.7888 22.0567 14.3799 21.9904C13.9711 21.9241 13.6934 21.5389 13.7597 21.1301L16.7597 2.63006C16.826 2.22119 17.2112 1.94348 17.6201 2.00978Z" fill="black"/>
</svg>

<svg xmlns="http://www.w3.org/2000/svg" width="24" height="24" viewBox="0 0 24 24"><path fill-rule="evenodd" d="M2 8.25a.75.75 0 01.75-.75h18.5a.75.75 0 010 1.5H2.75A.75.75 0 012 8.25zm-.005 7.5a.75.75 0 01.75-.75v1.5a.75.75 0 01-.75-.75zm.75 0v.75H21.25a.75.75 0 000-1.5H2.745v.75z"/><path fill-rule="evenodd" d="M9.62 2.01a.75.75 0 01.62.86l-3 18.5a.75.75 0 01-1.48-.24l3-18.5a.75.75 0 01.86-.62zm8 0a.75.75 0 01.62.86l-3 18.5a.75.75 0 01-1.48-.24l3-18.5a.75.75 0 01.86-.62z"/></svg>
